img/black-logo.svg

<svg width="225" height="122" viewBox="0 0 225 122" fill="none" xmlns="http://www.w3.org/2000/svg">
<path d="M67.2808 21.3056L69.7472 19.4336V67.8836H67.2808V21.3056Z" fill="#121212"/>
<path d="M75.6217 15.645V67.8837H73.1553V61.1533H74.3661V28.571L73.1553 29.507V17.5171L75.6217 15.645Z" fill="#121212"/>
<path d="M81.4967 11.8564V67.8838H79.0303V61.1533H80.2859V24.7824L79.0303 25.7184V13.773L81.4967 11.8564Z" fill="#121212"/>
<path d="M87.4162 8.06738V67.8834H84.9497V61.1529H86.1605V20.9933L84.9497 21.9294V9.93942L87.4162 8.06738Z" fill="#121212"/>
<path d="M93.2907 4.27881V67.8834H90.8242V61.153H92.0798V17.2048L90.8242 18.1408V6.15085L93.2907 4.27881Z" fill="#121212"/>
<path d="M99.2101 0.490234V67.8835H96.7437V61.1531H97.9545V13.4162L96.7437 14.3522V2.36227L99.2101 0.490234Z" fill="#121212"/>
<path d="M105.264 1.15888V67.8836H102.439V61.1531H103.829V12.5694L102.439 11.9899V0L105.264 1.15888Z" fill="#121212"/>
<path d="M111.184 3.52131V67.8837H108.358V61.1532H109.749V14.8872L108.358 14.3078V2.31787L111.184 3.52131Z" fill="#121212"/>
<path d="M117.059 5.83906V67.8836H114.233V61.1532H115.624V17.2496L114.233 16.6701V4.68018L117.059 5.83906Z" fill="#121212"/>
<path d="M122.933 8.20135V67.8836H120.153V61.1532H121.543V19.6118L120.153 19.0324V7.04248L122.933 8.20135Z" fill="#121212"/>
<path d="M128.853 10.5637V67.8836H126.027V61.1532H127.418V21.9296L126.027 21.3501V9.40479L128.853 10.5637Z" fill="#121212"/>
<path d="M134.728 12.8815V67.8837H131.902V61.1533H133.337V24.292L131.902 23.7126V11.7227L134.728 12.8815Z" fill="#121212"/>
<path d="M140.647 15.2438V67.8837H137.822V61.1533H139.212V26.6543L137.822 26.0749V14.085L140.647 15.2438Z" fill="#121212"/>
<path d="M146.521 17.6061V67.8837H143.696V61.1532H145.131V28.9721L143.696 28.3926V16.4473L146.521 17.6061Z" fill="#121212"/>
<path d="M152.441 19.924V67.8838H149.616V61.1533H151.006V31.3345L149.616 30.7551V18.7651L152.441 19.924Z" fill="#121212"/>
<path d="M155.491 21.1274L158.316 22.2863V67.8838H155.491V21.1274Z" fill="#121212"/>
<path d="M0.9104 84.9992H2.92842L8.3098 84.9546C11.3592 84.9546 13.8706 87.4506 13.8706 90.4815C13.8706 92.4873 12.7943 94.2256 11.1799 95.2062C14.0948 95.4736 16.3819 97.9251 16.3819 100.867C16.3819 104.031 13.8257 106.528 10.6417 106.528H0.955234C0.955234 106.528 1.85214 106.037 1.94183 105.547C2.07636 104.076 2.25575 100.956 2.25575 95.7411C2.25575 90.5707 2.2109 87.2723 1.94183 85.8906C1.85214 85.4894 0.9104 84.9992 0.9104 84.9992ZM6.87476 85.8906C6.33662 85.8906 5.75364 85.9352 5.17066 85.9352C5.08097 87.406 4.85674 90.6598 4.81189 95.1171H7.27836C9.65514 95.1171 11.6283 92.8439 11.6283 90.4815C11.6283 88.1192 9.78967 85.9797 7.45774 85.8906H6.87476ZM9.69998 96.0977C8.93762 96.0531 7.95104 96.0531 6.91961 96.0531C6.20209 96.0531 5.48457 96.0977 4.85674 96.0977C4.85674 100.911 5.03613 103.987 5.17066 105.458C6.65054 105.547 8.35464 105.725 9.56545 105.725C12.0319 105.725 14.0499 103.363 14.0499 100.911C14.0499 98.46 12.1216 96.2314 9.69998 96.0977Z" fill="#121212"/>
<path d="M19.8798 95.7855C19.8798 90.9271 19.7453 87.4505 19.5211 85.935C19.4314 85.4447 18.5793 85.0436 18.5793 85.0436H23.7814C23.7814 85.0436 22.8845 85.4002 22.8396 85.935C22.7499 87.4059 22.5257 90.7043 22.4808 95.1615L28.2658 95.2061C31.4498 95.2061 34.006 97.7467 34.006 100.911C34.006 104.076 31.4498 106.617 28.2658 106.617L20.7767 106.661H18.5793C18.5793 106.661 19.5211 106.126 19.5659 105.636C19.6556 104.121 19.8798 100.956 19.8798 95.7855ZM26.6066 96.0529C25.3958 96.0529 23.7813 96.1421 22.4808 96.2312C22.4808 100.956 22.6602 103.942 22.7948 105.413C24.2746 105.502 26.0236 105.636 27.2344 105.636C29.7009 105.636 31.7189 103.274 31.7189 100.822C31.7189 98.3707 29.7906 96.1421 27.3241 96.0529C27.0999 96.0975 26.8756 96.0529 26.6066 96.0529ZM40.9121 106.527H35.0822C35.0822 106.527 36.3379 105.636 36.4276 104.7C36.5621 102.917 36.6967 97.7021 36.6967 93.1557C36.6967 90.3477 36.6518 87.8516 36.5173 86.6036C36.4276 85.6676 35.1719 84.999 35.1719 84.999H40.9569C40.9569 84.999 39.7013 85.4448 39.6116 86.5145C39.4322 88.2528 39.2977 91.462 39.2977 95.7409C39.2977 100.198 39.4322 103.229 39.5667 104.878C39.6564 105.993 40.9121 106.527 40.9121 106.527Z" fill="#121212"/>
<path d="M43.4233 84.9989H52.5717C55.4418 84.9543 57.4149 84.7314 57.4149 84.7314C57.4149 84.7314 57.101 86.1132 56.9665 87.1829C56.7871 88.5647 56.7871 90.9716 56.7871 90.9716C56.7871 90.9716 55.666 85.8903 52.3923 85.8903H47.6836C47.5939 87.3612 47.3697 90.615 47.3248 95.1168L53.1098 95.1613C56.2938 95.1613 58.85 97.702 58.85 100.822C58.85 103.987 56.2938 106.527 53.1098 106.527H43.4233C43.4682 106.483 44.3202 106.215 44.4099 105.547C44.5893 104.299 44.7687 100.867 44.7687 95.7408C44.7687 90.8824 44.4996 87.3166 44.4099 85.8012C44.3202 85.3109 43.4233 84.9989 43.4233 84.9989ZM51.4506 96.0974C50.2398 96.0974 48.6253 96.1865 47.3248 96.2756C47.3248 100.956 47.5042 103.942 47.6388 105.413C49.1186 105.502 50.8227 105.636 52.0336 105.636C54.5 105.636 56.518 103.273 56.518 100.822C56.518 98.3705 54.6345 96.1865 52.1681 96.0974C51.9887 96.1419 51.7196 96.0974 51.4506 96.0974Z" fill="#121212"/>
<path d="M83.7837 93.2004C82.6177 87.8517 77.8193 84.1968 72.5276 84.1968C71.6756 84.1968 70.8684 84.2859 70.0612 84.4642C65.4422 85.4448 61.0474 90.214 61.0474 95.8301C61.0474 96.5433 61.0922 97.301 61.3164 98.1033C62.5272 104.031 67.0566 107.107 72.1689 107.107C73.1106 107.107 74.0075 107.018 74.9941 106.795C80.3755 105.636 84.0528 100.911 84.0528 95.6518C84.0528 94.8495 83.9631 94.0027 83.7837 93.2004ZM81.093 98.8165C80.6446 101.892 78.1781 104.745 74.7699 105.502C74.2318 105.636 73.6488 105.681 73.1106 105.681C70.2406 105.681 67.505 104.165 66.1148 102.026C65.4422 100.956 64.5453 99.1285 64.1865 97.4347C63.9623 96.4987 63.8726 95.4735 63.8726 94.493C63.8726 93.6461 63.9623 92.7992 64.0968 92.0415C64.6798 89.1889 67.1463 86.3808 70.4199 85.6677C70.9581 85.5339 71.5411 85.4894 72.0792 85.4894C74.7699 85.4894 77.326 86.9157 78.8508 88.8769C79.8822 90.1695 80.5997 91.9969 81.0033 93.8244C81.1827 94.6712 81.2724 95.6073 81.2724 96.4987C81.2724 97.3456 81.1827 98.1925 81.093 98.8165Z" fill="#121212"/>
<path d="M90.1066 96.0085V97.1228C90.1066 101.669 90.286 104.566 90.4653 105.725C90.5102 106.26 91.4071 106.572 91.4071 106.572H86.2051C86.2051 106.572 87.102 106.126 87.1917 105.636C87.2814 104.21 87.5056 101.001 87.5056 95.7856C87.5056 90.6153 87.3262 87.2723 87.102 85.6677C87.0571 85.3112 86.2051 84.9992 86.2051 84.9992H88.2231L93.5596 84.9546C96.6091 84.9546 99.1204 87.4506 99.1204 90.4815C99.1204 93.5124 96.6539 95.9639 93.6045 95.9639L90.1066 96.0085ZM92.1246 85.8906C91.5865 85.8906 91.0035 85.8906 90.5102 85.9352C90.4205 87.406 90.1963 90.7044 90.1514 95.1171H92.6179C94.9947 95.1171 96.9678 92.8439 96.9678 90.5261C96.9678 88.1638 95.1292 86.0243 92.7973 85.9352L92.1246 85.8906Z" fill="#121212"/>
<path d="M128.315 106.528H122.53C122.53 106.528 123.651 106.216 123.83 105.146C123.965 103.541 124.144 100.466 124.144 95.7412C124.144 91.4177 123.875 87.0942 123.74 86.1136C123.427 85.8908 121.095 85.8462 119.166 85.8462C117.103 85.8462 114.816 85.8462 114.502 86.0691C114.233 87.5845 114.099 91.4623 114.099 95.6966C114.099 100.332 114.278 103.363 114.413 104.968C114.502 105.859 115.713 106.439 115.713 106.439H109.928C109.928 106.439 111.139 105.904 111.229 104.923C111.318 104.032 111.543 100.6 111.543 96.3652V95.6521C111.498 91.3286 111.363 88.0748 111.229 86.381C111.139 85.2222 109.928 84.9102 109.928 84.9102H128.315C128.225 84.9993 127.104 85.6233 127.014 86.381C126.835 88.1194 126.7 91.4177 126.7 95.6521C126.7 100.288 126.835 103.319 126.969 104.923C127.059 105.948 128.315 106.528 128.315 106.528Z" fill="#121212"/>
<path d="M132.082 95.7409C132.082 90.9271 131.858 87.4951 131.723 85.935C131.678 85.4447 130.781 85.0436 130.781 85.0436H141.185C144.01 85.0436 146.073 84.687 146.073 84.687C146.073 84.687 145.759 86.0242 145.58 87.1385C145.401 88.5202 145.401 90.9271 145.401 90.9271C145.401 90.9271 144.28 85.935 141.006 85.935H135.042C134.907 87.4505 134.728 90.7934 134.683 95.3398L138.853 95.2952C141.185 95.2506 141.723 93.8243 141.723 93.8243V97.7913C141.723 97.7913 141.096 96.3649 138.898 96.2758H134.728C134.772 101.357 134.997 104.433 135.086 105.725H141.096C144.324 105.681 145.446 100.644 145.446 100.644C145.446 100.644 145.49 103.095 145.625 104.433C145.804 105.547 146.118 106.884 146.118 106.884C146.118 106.884 144.055 106.527 141.23 106.527H130.826C130.826 106.527 131.723 106.037 131.813 105.547C131.858 104.21 132.082 101.134 132.082 95.7409Z" fill="#121212"/>
<path d="M152.441 96.0085V97.1228C152.441 101.669 152.62 104.566 152.8 105.725C152.845 106.26 153.742 106.572 153.742 106.572H148.54C148.54 106.572 149.436 106.126 149.526 105.636C149.616 104.21 149.84 101.001 149.84 95.7856C149.84 90.6153 149.661 87.2723 149.436 85.6677C149.392 85.3112 148.54 84.9992 148.54 84.9992H150.558L155.894 84.9546C158.944 84.9546 161.455 87.4506 161.455 90.4815C161.455 93.5124 158.988 95.9639 155.939 95.9639L152.441 96.0085ZM154.414 85.8906C153.876 85.8906 153.293 85.8906 152.8 85.9352C152.71 87.406 152.486 90.7044 152.441 95.1171H154.907C157.284 95.1171 159.257 92.8439 159.257 90.5261C159.257 88.1638 157.419 86.0243 155.087 85.9352L154.414 85.8906Z" fill="#121212"/>
<path d="M163.966 84.9992H165.984L171.366 84.9546C174.415 84.9546 176.926 87.4506 176.926 90.4815C176.926 92.4873 175.85 94.2256 174.236 95.2062C177.151 95.4736 179.438 97.9251 179.438 100.867C179.438 104.031 176.882 106.528 173.698 106.528H164.011C164.011 106.528 164.908 106.037 164.998 105.547C165.132 104.076 165.312 100.956 165.312 95.7411C165.312 90.5707 165.267 87.2723 164.998 85.8906C164.908 85.4894 163.966 84.9992 163.966 84.9992ZM169.886 85.8906C169.348 85.8906 168.765 85.9352 168.182 85.9352C168.092 87.406 167.868 90.6598 167.823 95.1171H170.289C172.666 95.1171 174.639 92.8439 174.639 90.4815C174.639 88.1192 172.801 85.9797 170.469 85.8906H169.886ZM172.711 96.0977C171.949 96.0531 170.962 96.0531 169.931 96.0531C169.213 96.0531 168.496 96.0977 167.868 96.0977C167.868 100.911 168.047 103.987 168.182 105.458C169.662 105.547 171.366 105.725 172.577 105.725C175.043 105.725 177.061 103.363 177.061 100.911C177.061 98.46 175.178 96.2314 172.711 96.0977Z" fill="#121212"/>
<path d="M182.936 95.7855C182.936 90.9271 182.801 87.4505 182.577 85.935C182.487 85.4447 181.635 85.0436 181.635 85.0436H186.837C186.837 85.0436 185.94 85.4002 185.896 85.935C185.806 87.4059 185.582 90.7043 185.537 95.1615L191.322 95.2061C194.506 95.2061 197.062 97.7467 197.062 100.911C197.062 104.076 194.506 106.617 191.322 106.617L183.833 106.661H181.635C181.635 106.661 182.577 106.126 182.622 105.636C182.712 104.121 182.936 100.956 182.936 95.7855ZM189.618 96.0529C188.407 96.0529 186.792 96.1421 185.492 96.2312C185.492 100.956 185.671 103.942 185.806 105.413C187.286 105.502 189.035 105.636 190.245 105.636C192.712 105.636 194.73 103.274 194.73 100.822C194.73 98.3707 192.802 96.1421 190.335 96.0529C190.156 96.0975 189.887 96.0529 189.618 96.0529ZM203.923 106.527H198.093C198.093 106.527 199.349 105.636 199.439 104.7C199.573 102.917 199.708 97.7021 199.708 93.1557C199.708 90.3477 199.663 87.8516 199.528 86.6036C199.439 85.6676 198.183 84.999 198.183 84.999H203.968C203.968 84.999 202.712 85.4448 202.623 86.5145C202.443 88.2528 202.309 91.462 202.309 95.7409C202.309 100.198 202.443 103.229 202.578 104.878C202.712 105.993 203.923 106.527 203.923 106.527Z" fill="#121212"/>
<path d="M220.022 105.324C220.022 105.19 219.978 105.057 219.933 104.923C219.126 103.185 217.601 100.109 215.448 96.0085L210.246 105.012C210.112 105.235 210.067 105.413 210.067 105.592C210.067 106.26 210.874 106.572 210.874 106.572H206.39C206.39 106.572 207.735 106.26 208.677 104.834C209.843 103.051 214.641 95.1616 214.82 94.8942C212.444 90.5261 210.695 87.6289 209.798 86.158C209.26 85.3557 208.139 84.9546 208.139 84.9546H213.789C213.789 84.9546 213.027 85.1774 213.027 85.8906C213.027 86.0689 213.072 86.2472 213.161 86.4255C213.699 87.6289 214.686 89.6347 216.166 92.5319C217.87 89.5901 218.946 87.5844 219.484 86.5146C219.574 86.3363 219.619 86.158 219.619 85.9797C219.619 85.222 218.632 84.9546 218.632 84.9546H223.027C223.027 84.9546 221.637 85.3557 220.875 86.47L216.749 93.6462C217.108 94.3148 217.466 94.9833 217.87 95.7411C220.157 100.02 222.085 103.274 223.162 105.012C223.834 106.126 224.911 106.528 224.911 106.528H219.081C219.126 106.572 220.022 106.037 220.022 105.324Z" fill="#121212"/>
<path d="M75.846 95.8301C74.0074 95.8301 72.5275 97.301 72.5275 99.1284C72.5275 97.301 71.0476 95.8301 69.209 95.8301C71.0476 95.8301 72.5275 94.3592 72.5723 92.5317C72.5275 94.3592 74.0074 95.8301 75.846 95.8301Z" fill="#121212"/>
</svg>

<svg width="225" height="122" fill="none" xmlns="http://www.w3.org/2000/svg"><path d="m67.28 21.306 2.467-1.872v48.45h-2.466V21.306ZM75.622 15.645v52.239h-2.467v-6.73h1.211V28.57l-1.21.936v-11.99l2.466-1.872ZM81.497 11.856v56.028H79.03v-6.73h1.256V24.781l-1.256.936V13.773l2.467-1.917ZM87.416 8.067v59.816H84.95v-6.73h1.21v-40.16l-1.21.936V9.94l2.466-1.872ZM93.29 4.279v63.604h-2.466v-6.73h1.256V17.205l-1.256.936V6.15l2.467-1.872ZM99.21.49v67.394h-2.466v-6.73h1.21V13.415l-1.21.936V2.362L99.21.49ZM105.264 1.159v66.725h-2.825v-6.73h1.39V12.568l-1.39-.58V0l2.825 1.159ZM111.184 3.521v64.363h-2.826v-6.73h1.391V14.886l-1.391-.58V2.318l2.826 1.204ZM117.059 5.84v62.044h-2.826v-6.73h1.391V17.25l-1.391-.58V4.68l2.826 1.16ZM122.933 8.201v59.683h-2.78v-6.73h1.39V19.611l-1.39-.58V7.042l2.78 1.16ZM128.853 10.564v57.32h-2.826v-6.73h1.391V21.93l-1.391-.58V9.405l2.826 1.159ZM134.728 12.882v55.002h-2.826v-6.73h1.435V24.291l-1.435-.58v-11.99l2.826 1.16ZM140.647 15.244v52.64h-2.825v-6.73h1.39v-34.5l-1.39-.58V14.086l2.825 1.159ZM146.521 17.606v50.278h-2.825v-6.73h1.435V28.971l-1.435-.58V16.448l2.825 1.16ZM152.441 19.924v47.96h-2.825v-6.73h1.39v-29.82l-1.39-.579v-11.99l2.825 1.159ZM155.491 21.127l2.825 1.16v45.597h-2.825V21.127ZM.91 85h2.018l5.382-.045c3.05 0 5.56 2.496 5.56 5.526 0 2.006-1.076 3.745-2.69 4.725 2.915.268 5.202 2.72 5.202 5.661 0 3.164-2.556 5.661-5.74 5.661H.955s.897-.491.987-.981c.134-1.471.314-4.591.314-9.806 0-5.17-.045-8.469-.314-9.85-.09-.402-1.032-.892-1.032-.892Zm5.965.89c-.538 0-1.121.045-1.704.045-.09 1.471-.314 4.725-.36 9.182h2.467c2.377 0 4.35-2.273 4.35-4.636 0-2.362-1.838-4.501-4.17-4.59h-.583ZM9.7 96.099c-.762-.045-1.749-.045-2.78-.045-.718 0-1.435.045-2.063.045 0 4.813.18 7.889.314 9.36 1.48.089 3.184.267 4.394.267 2.467 0 4.485-2.362 4.485-4.814 0-2.451-1.928-4.68-4.35-4.813ZM19.88 95.785c0-4.858-.135-8.334-.359-9.85-.09-.49-.942-.891-.942-.891h5.202s-.896.356-.941.891c-.09 1.47-.314 4.77-.36 9.227l5.786.044c3.184 0 5.74 2.54 5.74 5.705s-2.556 5.706-5.74 5.706l-7.49.044H18.58s.942-.535.987-1.025c.09-1.515.314-4.68.314-9.85Zm6.727.268c-1.211 0-2.826.09-4.126.178 0 4.725.18 7.711.314 9.182 1.48.089 3.229.223 4.44.223 2.466 0 4.484-2.362 4.484-4.814 0-2.451-1.928-4.68-4.395-4.77-.224.045-.448 0-.717 0Zm14.305 10.474h-5.83s1.256-.891 1.346-1.827c.134-1.783.269-6.998.269-11.544 0-2.808-.045-5.304-.18-6.552-.09-.936-1.345-1.605-1.345-1.605h5.785s-1.256.446-1.345 1.516c-.18 1.738-.314 4.947-.314 9.226 0 4.457.134 7.488.269 9.137.09 1.115 1.345 1.649 1.345 1.649ZM43.423 84.999h9.149c2.87-.045 4.843-.268 4.843-.268s-.314 1.382-.448 2.452c-.18 1.382-.18 3.789-.18 3.789s-1.121-5.082-4.395-5.082h-4.708c-.09 1.471-.314 4.725-.36 9.227l5.786.044c3.184 0 5.74 2.541 5.74 5.661 0 3.165-2.556 5.705-5.74 5.705h-9.687c.045-.044.897-.312.987-.98.18-1.248.359-4.68.359-9.806 0-4.859-.27-8.424-.36-9.94-.089-.49-.986-.802-.986-.802Zm8.028 11.098c-1.211 0-2.826.09-4.126.179 0 4.68.18 7.666.314 9.137 1.48.089 3.184.223 4.395.223 2.466 0 4.484-2.363 4.484-4.814s-1.883-4.636-4.35-4.725c-.18.045-.448 0-.717 0ZM83.784 93.2c-1.166-5.348-5.965-9.003-11.256-9.003-.852 0-1.66.089-2.467.267-4.619.98-9.014 5.75-9.014 11.366 0 .713.045 1.471.27 2.273 1.21 5.928 5.74 9.004 10.852 9.004.942 0 1.838-.089 2.825-.312 5.382-1.159 9.059-5.884 9.059-11.143 0-.802-.09-1.65-.27-2.452Zm-2.691 5.617c-.448 3.075-2.915 5.928-6.323 6.685a6.993 6.993 0 0 1-1.66.179c-2.87 0-5.605-1.516-6.995-3.655-.673-1.07-1.57-2.897-1.928-4.591-.225-.936-.314-1.962-.314-2.942 0-.847.09-1.694.224-2.451.583-2.853 3.05-5.661 6.323-6.374a7.004 7.004 0 0 1 1.66-.179c2.69 0 5.246 1.427 6.77 3.388 1.032 1.293 1.75 3.12 2.153 4.947.18.847.27 1.783.27 2.675 0 .847-.09 1.694-.18 2.318ZM90.107 96.008v1.115c0 4.546.179 7.443.358 8.602.045.535.942.847.942.847h-5.202s.897-.446.987-.936c.09-1.426.314-4.635.314-9.85 0-5.17-.18-8.514-.404-10.118-.045-.357-.897-.669-.897-.669h2.018l5.337-.044c3.05 0 5.56 2.496 5.56 5.526 0 3.031-2.466 5.483-5.516 5.483l-3.497.044Zm2.018-10.117c-.538 0-1.121 0-1.615.044-.09 1.471-.314 4.77-.359 9.182h2.467c2.377 0 4.35-2.273 4.35-4.59 0-2.363-1.839-4.503-4.17-4.592l-.673-.044ZM128.315 106.528h-5.785s1.121-.312 1.3-1.382c.135-1.605.314-4.68.314-9.405 0-4.323-.269-8.647-.404-9.627-.313-.223-2.645-.268-4.574-.268-2.063 0-4.35 0-4.664.223-.269 1.516-.403 5.393-.403 9.628 0 4.635.179 7.666.314 9.271.089.891 1.3 1.471 1.3 1.471h-5.785s1.211-.535 1.301-1.516c.089-.891.314-4.323.314-8.558v-.713c-.045-4.323-.18-7.577-.314-9.271-.09-1.159-1.301-1.47-1.301-1.47h18.387c-.09.088-1.211.712-1.301 1.47-.179 1.738-.314 5.037-.314 9.271 0 4.636.135 7.667.269 9.271.09 1.025 1.346 1.605 1.346 1.605ZM132.082 95.74c0-4.813-.224-8.245-.359-9.805-.045-.49-.942-.891-.942-.891h10.404c2.825 0 4.888-.357 4.888-.357s-.314 1.337-.493 2.451c-.179 1.382-.179 3.79-.179 3.79s-1.121-4.993-4.395-4.993h-5.964c-.135 1.516-.314 4.858-.359 9.405l4.17-.045c2.332-.044 2.87-1.47 2.87-1.47v3.966s-.627-1.426-2.825-1.515h-4.17c.044 5.081.269 8.157.358 9.449h6.01c3.228-.044 4.35-5.081 4.35-5.081s.044 2.451.179 3.789c.179 1.114.493 2.451.493 2.451s-2.063-.357-4.888-.357h-10.404s.897-.49.987-.98c.045-1.337.269-4.413.269-9.806ZM152.441 96.008v1.115c0 4.546.179 7.443.359 8.602.045.535.942.847.942.847h-5.202s.896-.446.986-.936c.09-1.426.314-4.635.314-9.85 0-5.17-.179-8.514-.404-10.118-.044-.357-.896-.669-.896-.669h2.018l5.336-.044c3.05 0 5.561 2.496 5.561 5.526 0 3.031-2.467 5.483-5.516 5.483l-3.498.044Zm1.973-10.117c-.538 0-1.121 0-1.614.044-.09 1.471-.314 4.77-.359 9.182h2.466c2.377 0 4.35-2.273 4.35-4.59 0-2.363-1.838-4.503-4.17-4.592l-.673-.044ZM163.966 85h2.018l5.382-.045c3.049 0 5.56 2.496 5.56 5.526 0 2.006-1.076 3.745-2.69 4.725 2.915.268 5.202 2.72 5.202 5.661 0 3.164-2.556 5.661-5.74 5.661h-9.687s.897-.491.987-.981c.134-1.471.314-4.591.314-9.806 0-5.17-.045-8.469-.314-9.85-.09-.402-1.032-.892-1.032-.892Zm5.92.89c-.538 0-1.121.045-1.704.045-.09 1.471-.314 4.725-.359 9.182h2.466c2.377 0 4.35-2.273 4.35-4.636 0-2.362-1.838-4.501-4.17-4.59h-.583Zm2.825 10.208c-.762-.045-1.749-.045-2.78-.045-.718 0-1.435.045-2.063.045 0 4.813.179 7.889.314 9.36 1.48.089 3.184.267 4.395.267 2.466 0 4.484-2.362 4.484-4.814 0-2.451-1.883-4.68-4.35-4.813ZM182.936 95.785c0-4.858-.135-8.334-.359-9.85-.09-.49-.942-.891-.942-.891h5.202s-.897.356-.941.891c-.09 1.47-.314 4.77-.359 9.227l5.785.044c3.184 0 5.74 2.54 5.74 5.705s-2.556 5.706-5.74 5.706l-7.489.044h-2.198s.942-.535.987-1.025c.09-1.515.314-4.68.314-9.85Zm6.682.268c-1.211 0-2.826.09-4.126.178 0 4.725.179 7.711.314 9.182 1.48.089 3.229.223 4.439.223 2.467 0 4.485-2.362 4.485-4.814 0-2.451-1.928-4.68-4.395-4.77-.179.045-.448 0-.717 0Zm14.305 10.474h-5.83s1.256-.891 1.346-1.827c.134-1.783.269-6.998.269-11.544 0-2.808-.045-5.304-.18-6.552-.089-.936-1.345-1.605-1.345-1.605h5.785s-1.256.446-1.345 1.516c-.18 1.738-.314 4.947-.314 9.226 0 4.457.134 7.488.269 9.137.134 1.115 1.345 1.649 1.345 1.649ZM220.022 105.324c0-.134-.044-.267-.089-.401-.807-1.738-2.332-4.814-4.485-8.915l-5.202 9.004a1.079 1.079 0 0 0-.179.58c0 .668.807.98.807.98h-4.484s1.345-.312 2.287-1.738c1.166-1.783 5.964-9.672 6.143-9.94a197.179 197.179 0 0 0-5.022-8.736c-.538-.802-1.659-1.203-1.659-1.203h5.65s-.762.222-.762.936c0 .178.045.356.134.534.538 1.204 1.525 3.21 3.005 6.107 1.704-2.942 2.78-4.948 3.318-6.017.09-.179.135-.357.135-.535 0-.758-.987-1.025-.987-1.025h4.395s-1.39.4-2.152 1.515l-4.126 7.176c.359.669.717 1.337 1.121 2.095 2.287 4.279 4.215 7.533 5.292 9.271a3.835 3.835 0 0 0 1.749 1.516h-5.83c.045.044.941-.491.941-1.204Z" fill="#121212"/><path d="M75.846 95.83a3.301 3.301 0 0 0-3.319 3.298 3.301 3.301 0 0 0-3.318-3.298 3.369 3.369 0 0 0 3.363-3.298c-.044 1.827 1.435 3.298 3.274 3.298Z" fill="#121212"/></svg>
